X: 0
T: The Cherry Tree
Z: English Traditional
Z: Copyright © 2005 by Douglas D. Anderson
Z: Released To The Public Domain
L: 1/4
M: 3/4
Q: 1/4=100
V: P1 name="Staff"
%%MIDI program 1 19
K: E
[V: P1]  E B B/ B/ | (A/ G/) E B, | E A c | B2 B | e B B | (A/ G/) A =d | B F (G/ F/) | E2|]
w: Jo- seph was an old_ man, An old man was he; He mar- ried with Ma-_ ry, The Queen of Glo-_ ry.

